Papirus-GTK/48x48/apps/gmail.svg

<svg height="48" preserveAspectRatio="xMidYMid" viewBox="0 0 48 48" width="48" xmlns="http://www.w3.org/2000/svg" xmlns:xlink="http://www.w3.org/1999/xlink"><linearGradient id="a" gradientTransform="matrix(.18885351 0 0 .12862752 3.966219 8.9999997)" gradientUnits="userSpaceOnUse" x1="1.3210427" x2="211.76385" y1="127.76156" y2="127.76156"><stop offset="0" stop-opacity=".1"/><stop offset="1" stop-opacity=".2"/></linearGradient><path d="m41.5 39h-34.9999999c-1.3571428 0-2.4999999-1.096698-2.4999999-2.476416v-25.047169c0-1.34434 1.1071428-2.476415 2.4999999-2.476415h34.9999999c1.357142 0 2.5 1.096698 2.5 2.476415v25.047169c0 1.379718-1.107143 2.476416-2.5 2.476416z" fill="#e3e3e3"/><path d="m8.9977902 38.964831l14.9420398-11.852286.106983-.633061-15.4056347-10.937866-.0356612 22.895662z" fill="#231f20" opacity=".1"/><path d="m6.4999994 10c-1.2224605 0-2.2240197.190451-2.4510954 1.163435-.031671.135707-.048904.287033-.048904.454833v24.922119c0 1.370892 1.107037 2.459613 2.4999999 2.459613h2.5000001v-27.381732c0-.166967-.017864-.319309-.05086-.454833-.2270805-.972978-1.226683-1.1634351-2.4491406-1.163435z" fill="#d54b3d"/><path d="m41.500001 10.000004c-1.392963 0-2.500001.174939-2.500001 1.544171v27.42073.0351h2.500001c1.392963-.000001 2.499999-1.087405 2.499999-2.456637v-24.999189c0-1.369232-1.107036-1.544171-2.499999-1.544171z" fill="#d54b3d"/><path d="m31 39l-26.785843-26.409893 1.39582.559951 18.472496 13.118407 19.863285-14.364702v24.634338c0 1.33646-1.105505 2.466471-2.496284 2.461899z" fill="url(#a)"/><path d="m6.5 9c-1.3928571 0-2.5 1.132223-2.5 2.476562v.421876c.0928206.355083.2198174.698074.3984375.982421.1727339.275865.3994069.524335.6757813.726563l18.8652342 13.541016 11.056641-7.951172 7.951172-5.695313c.53284-.377703.894129-.925373 1.052734-1.511719v-.513672c0-1.379716-1.142858-2.476562-2.5-2.476562h-.351562c-.410872.0729623-.854069.2306275-1.160157.4570312l-16.048828 11.5703128-15.939453-11.4296878c-.3209507-.2373974-.9594277-.4872047-1.484375-.5976562z" fill="#d54b3d"/><path d="m4 35.523438v1c0 1.379717 1.1428572 2.476562 2.5 2.476562h35c1.392857 0 2.5-1.096845 2.5-2.476562v-1c0 1.379717-1.107143 2.476562-2.5 2.476562h-35c-1.3571428 0-2.5-1.096845-2.5-2.476562z" opacity=".3"/><path d="m6.5 9c-1.3928571 0-2.5 1.132223-2.5 2.476562v1c0-1.344339 1.1071429-2.476562 2.5-2.476562h35c1.357142 0 2.5 1.096846 2.5 2.476562v-1c0-1.379716-1.142858-2.476562-2.5-2.476562z" fill="#fff" opacity=".1"/></svg>

<?xml version="1.0" encoding="UTF-8" standalone="no"?>
<svg
   xmlns:dc="http://purl.org/dc/elements/1.1/"
   xmlns:cc="http://creativecommons.org/ns#"
   xmlns:rdf="http://www.w3.org/1999/02/22-rdf-syntax-ns#"
   xmlns:svg="http://www.w3.org/2000/svg"
   xmlns="http://www.w3.org/2000/svg"
   xmlns:sodipodi="http://sodipodi.sourceforge.net/DTD/sodipodi-0.dtd"
   xmlns:inkscape="http://www.inkscape.org/namespaces/inkscape"
   width="48"
   height="48"
   viewBox="0 0 48 48"
   version="1.1"
   preserveAspectRatio="xMidYMid"
   id="svg2"
   inkscape:version="0.91 r13725"
   sodipodi:docname="gmail.svg">
  <metadata
     id="metadata33">
    <rdf:RDF>
      <cc:Work
         rdf:about="">
        <dc:format>image/svg+xml</dc:format>
        <dc:type
           rdf:resource="http://purl.org/dc/dcmitype/StillImage" />
        <dc:title />
      </cc:Work>
    </rdf:RDF>
  </metadata>
  <sodipodi:namedview
     pagecolor="#ffffff"
     bordercolor="#666666"
     borderopacity="1"
     objecttolerance="10"
     gridtolerance="10"
     guidetolerance="10"
     inkscape:pageopacity="0"
     inkscape:pageshadow="2"
     inkscape:window-width="1600"
     inkscape:window-height="849"
     id="namedview31"
     showgrid="false"
     inkscape:zoom="7.03"
     inkscape:cx="-14.781079"
     inkscape:cy="36.822691"
     inkscape:window-x="0"
     inkscape:window-y="30"
     inkscape:window-maximized="1"
     inkscape:current-layer="svg2" />
  <defs
     id="defs4">
    <linearGradient
       x1="1.3210427"
       y1="127.76156"
       x2="211.76385"
       y2="127.76156"
       id="linearGradient-1"
       gradientTransform="matrix(0.18885351,0,0,0.12862752,3.966219,8.9999997)"
       gradientUnits="userSpaceOnUse">
      <stop
         stop-color="#000000"
         stop-opacity="0.1"
         offset="0%"
         id="stop7" />
      <stop
         stop-color="#000000"
         stop-opacity="0.2"
         offset="100%"
         id="stop9" />
    </linearGradient>
  </defs>
  <path
     style="fill:#e3e3e3"
     inkscape:connector-curvature="0"
     id="path13"
     d="M 41.5,39 6.5000001,39 C 5.1428573,39 4.0000002,37.903302 4.0000002,36.523584 l 0,-25.047169 C 4.0000002,10.132075 5.107143,9 6.5000001,9 L 41.5,9 c 1.357142,0 2.5,1.096698 2.5,2.476415 l 0,25.047169 C 44,37.903302 42.892857,39 41.5,39 l 0,0 z" />
  <path
     style="opacity:0.1;fill:#231f20"
     inkscape:connector-curvature="0"
     id="path15"
     d="M 8.9977902,38.964831 23.93983,27.112545 24.046813,26.479484 8.6411783,15.541618 8.6055171,38.43728 8.9977902,38.964831 Z" />
  <path
     inkscape:connector-curvature="0"
     style="fill:#d54b3d"
     d="M 6.4999994,10 C 5.2775389,10 4.2759797,10.190451 4.048904,11.163435 4.017233,11.299142 4,11.450468 4,11.618268 L 4,36.540387 C 4,37.911279 5.107037,39 6.4999999,39 L 9,39 9,11.618268 C 9,11.451301 8.982136,11.298959 8.94914,11.163435 8.7220595,10.190457 7.722457,9.9999999 6.4999994,10 Z"
     id="path17" />
  <path
     inkscape:connector-curvature="0"
     style="fill:#d54b3d"
     d="M 41.500001,10.000004 C 40.107038,10.000004 39,10.174943 39,11.544175 l 0,27.42073 0,0.0351 2.500001,0 C 42.892964,39.000004 44,37.9126 44,36.543368 l 0,-24.999189 c 0,-1.369232 -1.107036,-1.544171 -2.499999,-1.544171 z"
     id="path21" />
  <path
     inkscape:connector-curvature="0"
     style="fill:url(#linearGradient-1)"
     id="path25"
     d="M 31,39 4.214157,12.590107 l 1.39582,0.559951 18.472496,13.118407 19.863285,-14.364702 0,24.634338 c 0,1.33646 -1.105505,2.466471 -2.496284,2.461899 z"
     sodipodi:nodetypes="cccccssc" />
  <path
     style="fill:#d54b3d"
     d="M 6.5 9 C 5.1071429 9 4 10.132223 4 11.476562 L 4 11.898438 C 4.0928206 12.253521 4.2198174 12.596512 4.3984375 12.880859 C 4.5711714 13.156724 4.7978444 13.405194 5.0742188 13.607422 L 23.939453 27.148438 L 34.996094 19.197266 L 42.947266 13.501953 C 43.480106 13.12425 43.841395 12.57658 44 11.990234 L 44 11.476562 C 44 10.096846 42.857142 9 41.5 9 L 41.148438 9 C 40.737566 9.0729623 40.294369 9.2306275 39.988281 9.4570312 L 23.939453 21.027344 L 8 9.5976562 C 7.6790493 9.3602588 7.0405723 9.1104515 6.515625 9 L 6.5 9 z "
     id="path27" />
  <path
     inkscape:connector-curvature="0"
     style="opacity:0.3;fill:#000000;fill-opacity:1"
     d="m 4,35.523438 0,1 C 4,37.903155 5.1428572,39 6.5,39 l 35,0 c 1.392857,0 2.5,-1.096845 2.5,-2.476562 l 0,-1 C 44,36.903155 42.892857,38 41.5,38 l -35,0 C 5.1428572,38 4,36.903155 4,35.523438 Z"
     id="path4175" />
  <path
     inkscape:connector-curvature="0"
     style="opacity:0.1;fill:#ffffff;fill-opacity:1"
     d="M 6.5,9 C 5.1071429,9 4,10.132223 4,11.476562 l 0,1 C 4,11.132223 5.1071429,10 6.5,10 l 35,0 c 1.357142,0 2.5,1.096846 2.5,2.476562 l 0,-1 C 44,10.096846 42.857142,9 41.5,9 l -35,0 z"
     id="path4180" />
</svg>
